!!!COM: Bach, Johann Sebastian
!!!OTA: Das wohltemperirte Clavier
!!!OPR: Das wohltemperierte Klavier
!!!OTL: Fuga 12, Vol. 1
!!!XEN: The Well-Tempered Clavier, Volume 1, Fugue 12.
!!!ONB: F minor, 4-part
!!!SCT: BWV 857b
!!!YEC: Copyright 1994, David Huron
!!!YEM: Rights to all derivative electronic formats reserved.
**kern	**kern	**kern	**kern
*staff2	*staff2	*staff1	*staff1
*clefF4	*clefF4	*clefG2	*clefG2
*k[b-e-a-d-]	*k[b-e-a-d-]	*k[b-e-a-d-]	*k[b-e-a-d-]
*M4/4	*M4/4	*M4/4	*M4/4
*f:	*f:	*f:	*f:
*MM54	*MM54	*MM54	*MM54
=1	=1	=1	=1
1r	4r	1r	1r
.	4c	.	.
.	4d-	.	.
.	4c	.	.
=2	=2	=2	=2
1r	4Bn	1r	1r
.	4en	.	.
.	4f	.	.
.	4B-	.	.
=3	=3	=3	=3
1r	4An	1r	1r
.	4A-	.	.
.	2G	.	.
=4	=4	=4	=4
1r	8F	4r	1r
.	16F	.	.
.	16G	.	.
.	8A-	4f	.
.	16A-	.	.
.	16B-	.	.
.	16c	4a-	.
.	16BBn	.	.
.	16C	.	.
.	16Dn	.	.
.	4E-	4g	.
=5	=5	=5	=5
1r	16r	4f#	1r
.	16C	.	.
.	16Dn	.	.
.	16E-	.	.
.	4Fn	4bn	.
.	16r	4cc	.
.	16E-	.	.
.	16F	.	.
.	16G	.	.
.	4A-	4fn	.
=6	=6	=6	=6
1r	16r	4en	1r
.	16G	.	.
.	16An	.	.
.	16Bn	.	.
.	[4c	4e-	.
.	8c]	2dn	.
.	16B	.	.
.	16A	.	.
.	4BM	.	.
=7	=7	=7	=7
4r	8c	8c	1r
.	8G	16c	.
.	.	16dn	.
4C	8c	8en	.
.	8B-	16d	.
.	.	16e	.
4D-	8A-	16f	.
.	.	16En	.
.	4f	16F	.
.	.	16G	.
4C	.	4A-	.
.	8e-	.	.
=8	=8	=8	=8
4BBn	8dn	16r	1r
.	.	16F	.
.	16e-	16G	.
.	16f	16A-	.
4En	16g	4B-	.
.	16f	.	.
.	16en	.	.
.	16d	.	.
4F	4c	16r	.
.	.	16A-	.
.	.	16B-	.
.	.	16c	.
4BB-	16r	4d-	.
.	16B-	.	.
.	16A-	.	.
.	16G	.	.
=9	=9	=9	=9
4AAn	4F	16r	1r
.	.	16c	.
.	.	16dn	.
.	.	16en	.
4AA-	16r	4.f	.
.	16F	.	.
.	16G	.	.
.	16A-	.	.
2GG	4.B-	.	.
.	.	16e	.
.	.	16d	.
.	.	4e	.
.	16A-	.	.
.	16G	.	.
=10	=10	=10	=10
4FF	4A-	8f	1r
.	.	16f	.
.	.	16g	.
8r	4r	8a-	.
16F	.	16a-	.
16G	.	16b-	.
8A-	8r	[4cc	.
16A-	16c	.	.
16B-	16d-	.	.
8c	[4e-	16cc]	.
.	.	16b-	.
8C	.	16a-	.
.	.	16g	.
=11	=11	=11	=11
4D-	8e-]	4f	1r
.	16d-	.	.
.	16e-	.	.
8r	8f	4r	.
16D-	16f	.	.
16E-	16g	.	.
8F	[4a-	8r	.
16F	.	16A-	.
16G	.	16B-	.
8A-	16a-]	[4c	.
.	16g-	.	.
8AA-	16f	.	.
.	16e-	.	.
=12	=12	=12	=12
4BB-	4d-	8c]	1r
.	.	16B-	.
.	.	16c	.
8r	4r	8d-	.
16BB-	.	16d-	.
16C	.	16e-	.
8D-	8r	[2f	.
16D-	16F	.	.
16E-	16G	.	.
8F	8A-	.	.
8FF	16A-	.	.
.	16B-	.	.
=13	=13	=13	=13
8C	8c	8f]	4r
16C	8G	16en	.
16Dn	.	16f	.
8En	8c	[4g	4cc
16D	8B-	.	.
16E	.	.	.
16F	16A-	8g]	4dd-
16EEn	16r	.	.
16FF	8r	4f	.
16GG	.	.	.
4AA-	16r	.	4cc
.	16C	.	.
.	16Dn	8e-	.
.	16E-	.	.
=14	=14	=14	=14
16r	4F	8dn	4bn
16FF	.	.	.
16GG	.	16e-	.
16AA-	.	16f	.
4BB-	8r	16g	4een
.	.	16f	.
.	8G	16en	.
.	.	16d	.
16r	8A-	8c	4ff
16AA-	.	.	.
16BB-	8r	8r	.
16C	.	.	.
4D-	16r	8r	4b-
.	16B-	.	.
.	16A-	8B-	.
.	16G	.	.
=15	=15	=15	=15
16r	4F	4c	4an
16C	.	.	.
16Dn	.	.	.
16En	.	.	.
[4F	16r	8r	4a-
.	16F	.	.
.	16G	8c	.
.	16A-	.	.
8F]	4.B-	8d-	[2g
16E	.	16c	.
16D	.	16B-	.
4E	.	[4c	.
.	16A-	.	.
.	16G	.	.
=16	=16	=16	=16
4F	4A-	4c]	8g]
.	.	.	16f
.	.	.	16g
8r	4r	4r	[2.a-
16F	.	.	.
16E-	.	.	.
8Dn	2r	8r	.
16D	.	16f	.
16C	.	16e-	.
8BB-	.	8dn	.
16C	.	16d	.
16D	.	16c	.
=17	=17	=17	=17
4E-	1r	8B-	8a-]
.	.	16B-	16g
.	.	16A-	16a-
8r	.	4G	[2.b-
16G	.	.	.
16F	.	.	.
8En	.	8r	.
16E	.	16g	.
16Dn	.	16f	.
8C	.	8en	.
16D	.	16e	.
16E	.	16dn	.
=18	=18	=18	=18
4F	1r	8c	16b-]
.	.	.	16g
.	.	16c	16a-
.	.	16B-	16cc
8r	.	4A-	[2.ff
16Dn	.	.	.
16C	.	.	.
8BBn	.	8r	.
16BB	.	16ddn	.
16AAn	.	16cc	.
8GG	.	8bn	.
16AA	.	16b	.
16BB	.	16an	.
=19	=19	=19	=19
4C	4r	8g	8ff]
.	.	16g	8ee-
.	.	16an	.
4r	4G	8bn	8ddn
.	.	16a	[8gg
.	.	16b	.
2r	4A-	[4cc	16gg]
.	.	.	16bn
.	.	.	16cc
.	.	.	16dd
.	4G	8cc]	4ee-
.	.	8b-	.
=20	=20	=20	=20
1r	4F#	8an	16r
.	.	.	16cc
.	.	16bn	16ddn
.	.	16cc	16ee-
.	4Bn	16ddn	4ffn
.	.	16cc	.
.	.	16b	.
.	.	16a	.
.	4c	4g	16r
.	.	.	16ee-
.	.	.	16ff
.	.	.	16gg
.	4Fn	16r	4aa-
.	.	16f	.
.	.	16e-	.
.	.	16dn	.
=21	=21	=21	=21
1r	4En	4c	16r
.	.	.	16gg
.	.	.	16aan
.	.	.	16bbn
.	4E-	16r	[4ccc
.	.	16cc	.
.	.	16ddn	.
.	.	16ee-	.
.	2Dn	4.ff	8ccc]
.	.	.	16bb
.	.	.	16aa
.	.	.	4bb
.	.	16ee-	.
.	.	16dd	.
=22	=22	=22	=22
1r	4C	8ee-	8ccc
.	.	16cc	8gg
.	.	16ddn	.
.	8r	[2.ee-	[4ccc
.	16cc	.	.
.	16b-	.	.
.	8an	.	8ccc]
.	16a	.	16ccc
.	16g	.	16bb-
.	8f	.	8aan
.	16g	.	16aa
.	16a	.	16gg
=23	=23	=23	=23
1r	8b-	8ee-]	8ff
.	8B-	16b-	16gg
.	.	16cc	16aan
.	8r	[2.dd-	4bb-
.	16b-	.	.
.	16a-	.	.
.	8g	.	8r
.	16g	.	16bb-
.	16f	.	16aa-
.	8e-	.	8gg
.	16f	.	16gg
.	16g	.	16ff
=24	=24	=24	=24
1r	8a-	8dd-]	8ee-
.	8A-	16a-	16ff
.	.	16b-	16gg
.	8r	[2.cc	4aa-
.	16a-	.	.
.	16g	.	.
.	8f	.	8r
.	16f	.	16aa-
.	16e-	.	16gg
.	8d-	.	8ff
.	16d-	.	16ff
.	16c	.	16ee-
=25	=25	=25	=25
1r	8B-	8cc]	4.dd-
.	16c	16b-	.
.	16d-	16a-	.
.	8e-	[4g	.
.	8E-	.	16ee-
.	.	.	16dd-
.	8A-	4.g]	8cc
.	16B-	.	16cc
.	16c	.	16b-
.	[4d-	.	[4a-
.	.	16f	.
.	.	16en	.
=26	=26	=26	=26
1r	8d-]	4.f	8a-]
.	16d-	.	16b-
.	16c	.	16cc
.	8B-	.	[4dd-
.	16B-	16g	.
.	16A-	16a-	.
.	8G	[4b-	16dd-]
.	.	.	16cc
.	16G	.	16dd-
.	16F	.	16b-
.	8En	16b-]	[4gg
.	.	16a-	.
.	8C	16b-	.
.	.	16g	.
=27	=27	=27	=27
2r	8F	[4a-	16gg]
.	.	.	16cc
.	16f	.	16dd-
.	16e-	.	16cc
.	4d-T	16a-]	[4ff
.	.	16g	.
.	.	16a-	.
.	.	16f	.
4r	8c	8cc	8ff]
.	16C	8g	16een
.	16Dn	.	16ff
4C	8En	8cc	[4gg
.	16D	8b-	.
.	16E	.	.
=28	=28	=28	=28
4D-	16F	8a-	8gg]
.	16En	.	.
.	16F	8b-	4ff
.	16G	.	.
4C	4A-	16cc	.
.	.	16c	.
.	.	16dn	8ee-
.	.	16e-	.
4BBn	16r	4f	8ddn
.	16F	.	.
.	16G	.	16ee-
.	16A-	.	16ff
4En	4B-	8r	16gg
.	.	.	16ff
.	.	8g	16een
.	.	.	16dd
=29	=29	=29	=29
4F	16r	4a-	4cc
.	16A-	.	.
.	16B-	.	.
.	16c	.	.
4BB-	4d-	8r	16r
.	.	.	16b-
.	.	8b-	16a-
.	.	.	16g
4AAn	16r	4cc	4f
.	16c	.	.
.	16dn	.	.
.	16en	.	.
4AA-	[4f	8r	16r
.	.	.	16f
.	.	8cc	16g
.	.	.	16a-
=30	=30	=30	=30
2GG	8f]	8dd-	4.b-
.	16en	16cc	.
.	16dn	16b-	.
.	4e	[4cc	.
.	.	.	16a-
.	.	.	16g
8FF	4f	4cc]	4a-
16F	.	.	.
16G	.	.	.
8A-	8r	4r	4r
16A-	16c	.	.
16B-	16d-	.	.
=31	=31	=31	=31
[4c	8e-	1r	8r
.	16e-	.	16gg-
.	16f	.	16ff
16c]	[4g-	.	16ee-
16B-	.	.	16dd-
16A-	.	.	16cc
16G-	.	.	16b-
8F	8g-]	.	8a-
16D-	16f	.	16b-
16E-	16e-	.	16cc
8F	8d-	.	8dd-
16F	16A-	.	8r
16Gn	16B-	.	.
=32	=32	=32	=32
[4A-	8c	1r	8r
.	16c	.	16ee-
.	16d-	.	16dd-
16A-]	[4e-	.	16cc
16G-	.	.	16b-
16F	.	.	16a-
16E-	.	.	16g-
8D-	8e-]	.	8f
16BB-	16d-	.	16gn
16C	16c	.	16an
8D-	8B-	.	8b-
16D-	16F	.	8r
16E-	16Gn	.	.
=33	=33	=33	=33
[4F	8A-	1r	8r
.	16A-	.	16cc
.	16B-	.	16b-
16F]	[4c	.	16a-
16E-	.	.	16g
16D-	.	.	16f
16C	.	.	16e-
16BB-	8c]	.	[4d-
16C	.	.	.
16D-	16B-	.	.
16C	16c	.	.
16BB-	[4d-	.	16d-]
16AA-	.	.	16f
16GG	.	.	16b-
16FF	.	.	16a-
=34	=34	=34	=34
8EE-	8d-]	4r	4g
8BB-	16e-	.	.
.	16d-	.	.
8C	8c	4e-	[4a-
8AA-	16d-	.	.
.	16c	.	.
8D-	4.B-	4f	16a-]
.	.	.	16g
8BB-	.	.	16a-
.	.	.	16b-
8E-	.	4e-	4cc
8C	16A-	.	.
.	16G	.	.
=35	=35	=35	=35
8F	8A-	4dn	16r
.	.	.	16a-
4BB-	16G	.	16b-
.	16A-	.	16cc
.	16B-	4g	4dd-
.	16A-	.	.
16E-	16G	.	.
16D-	16F	.	.
8C	8E-	4a-	16r
.	.	.	16cc
[8F	[8A-	.	16dd-
.	.	.	16ee-
16F]	16A-]	4d-	4ff
16E-	16G	.	.
16F	16A-	.	.
16G	16B-	.	.
=36	=36	=36	=36
16A-	4c	4c	16r
16G	.	.	16ee-
16F	.	.	16ff
16E-	.	.	16gg
4Dn	16r	4c-	[4aa-
.	16F	.	.
.	16G	.	.
.	16A-	.	.
8E-	4E-	2B-	8aa-]
8D	.	.	16gg
.	.	.	16ff
8En	16r	.	[4gg
.	16G	.	.
8C	16F	.	.
.	16En	.	.
=37	=37	=37	=37
8F	4F	4A-	16gg]
.	.	.	16cc
16F	.	.	16ddn
16E-	.	.	16ee-
8Dn	4r	16r	[4ff
.	.	16bn	.
16D	.	16cc	.
16C	.	16ddn	.
16BBn	2r	4.g	8ff]
16GG	.	.	.
16AAn	.	.	16ee-
16BB	.	.	16dd
16C	.	.	[4ee-
16AA-	.	.	.
16BB-	.	8g-	.
16C	.	.	.
=38	=38	=38	=38
8D-	1r	[4f	16ee-]
.	.	.	16a-
16D-	.	.	16b-
16C	.	.	16cc
8BB-	.	16f]	[4dd-
.	.	16gn	.
16BB-	.	16a-	.
16AA-	.	16b-	.
16GG	.	[4e-	8dd-]
16EE-	.	.	.
16FF	.	.	16cc
16GG	.	.	16b-
16AA-	.	16e-]	[4cc
16FF	.	16g-	.
16GG	.	16f	.
16AAn	.	16e-	.
=39	=39	=39	=39
16BB-	1r	[2d-	8cc]
16AAn	.	.	.
16BB-	.	.	8f
16C	.	.	.
16D-	.	.	8b-
16BB-	.	.	.
16C	.	.	8a-
16D-	.	.	.
8E-	.	16d-]	[4g
.	.	16B-	.
16E-	.	16c	.
16D-	.	16d-	.
8C	.	[4e-	16g]
.	.	.	16g
16C	.	.	16a-
16BB-	.	.	16b-
=40	=40	=40	=40
8AA-	2r	16e-]	[4cc
.	.	16e-	.
16A-	.	16f	.
16G	.	16g	.
8F	.	[4a-	16cc]
.	.	.	16cc
16F	.	.	16ddn
16E-	.	.	16ee-
4Dn	4r	16a-]	[4ff
.	.	16cc	.
.	.	16b-	.
.	.	16a-	.
8E-	4B-	8.g	16ff]
.	.	.	16b-
8G	.	.	[8ee-
.	.	16g	.
=41	=41	=41	=41
8A-	4c	2f	16ee-]
.	.	.	16ee-
8F	.	.	16ddn
.	.	.	16cc
8B-	4B-	.	16dd
.	.	.	16ee-
8BB-	.	.	16cc
.	.	.	16dd
*	*	*strophe	*
*	*	*^	*
*	*	*S/sic	*S/ossia	*
8C	4An	8c	8e-	16ee-
.	.	.	.	16cc
*	*	*S/fin	*S/fin	*
*	*	*v	*v	*
*	*	*S-	*
16c	.	8r	16dd
16B-	.	.	16ee-
8A-	4dn	4r	16ff
.	.	.	16ee-
16B-	.	.	16dd
16A-	.	.	16cc
=42	=42	=42	=42
8G	4e-	16r	[2b-
.	.	16c	.
16BB-	.	16dn	.
16C	.	16e-	.
8Dn	4A-	16f	.
.	.	16e-	.
16C	.	16d	.
16D	.	16c	.
8E-	4G	[4B-	16b-]
.	.	.	16a-
16E-	.	.	16g
16D	.	.	16f
8C	4G-	8B-]	[4e-
16C	.	16An	.
16BB-	.	16B-	.
=43	=43	=43	=43
4AAn	2F	4c	16e-]
.	.	.	16e-
.	.	.	16f
.	.	.	16e-
4BB-	.	[4B-	16dn
.	.	.	16cc
.	.	.	16b-
.	.	.	16a-
4E-	4E-	8B-]	8g
.	.	16e-	8b-
.	.	16f	.
8r	4r	8g	[4ee-
16E-	.	16g	.
16F	.	16a-	.
=44	=44	=44	=44
8G	8r	[4b-	16ee-]
.	.	.	16gg
16G	16B-	.	16ff
16A-	16c	.	16ee-
8B-	16dn	16b-]	[4ddn
.	16c	16a-	.
8BB-	16B-	16g	.
.	16A-	16f	.
4C	4G	16e-	8dd]
.	.	16dn	.
.	.	16c	8g
.	.	16d	.
8r	4r	8e-	[4cc
16C	.	16e-	.
16Dn	.	16f	.
=45	=45	=45	=45
8E-	8r	[4g	16cc]
.	.	.	16ee-
16E-	16G	.	16ddn
16F	16A-	.	16cc
8G	16B-	16g]	[4b-
.	16A-	16f	.
8GG	16G	16e-	.
.	16F	16d-	.
4AA-	4E-	16c	8b-]
.	.	16B-	.
.	.	16A-	8e-
.	.	16B-	.
8r	4r	8c	[4a-
16AA-	.	16c	.
16BB-	.	16dn	.
=46	=46	=46	=46
8C	8r	[4e-	16a-]
.	.	.	16cc
16C	16E-	.	16b-
16Dn	16F	.	16a-
8E-	16G	16e-]	[4g
.	16F	16dn	.
8EE-	16E-	16c	.
.	16Dn	16B-	.
8FF	8C	8A-	16g]
.	.	.	16f
8GG	8BBn	16D	16a-
.	.	16E-	16g
8AA-	4C	8F	16f
.	.	.	16e-
8AAn	.	8F#	16dn
.	.	.	16c
=47	=47	=47	=47
8GG	8Dn	8G	4Bn
8r	8r	16G	.
.	.	16An	.
4r	4r	8Bn	4gg
.	.	16A	.
.	.	16B	.
2r	8r	16c	4aa-
.	.	16B	.
.	4cc	16c	.
.	.	16dn	.
.	.	4e-	4gg
.	8b-	.	.
=48	=48	=48	=48
1r	8an	16r	4ff#
.	.	16c	.
.	16b-	16dn	.
.	16cc	16e-	.
.	16ddn	4fn	4bbn
.	16cc	.	.
.	16bn	.	.
.	16a	.	.
.	4g	16r	4ccc
.	.	16e-	.
.	.	16f	.
.	.	16g	.
.	16r	4a-	4ffn
.	16G	.	.
.	16A-	.	.
.	16B-	.	.
=49	=49	=49	=49
1r	4c	16r	4een
.	.	16g	.
.	.	16an	.
.	.	16bn	.
.	16r	[4cc	4ee-
.	16c	.	.
.	16dn	.	.
.	16e-	.	.
.	16f	8cc]	[2ddn
.	16d	.	.
.	16e-	16b	.
.	16f	16a	.
.	16g	16b	.
.	16a-	16cc	.
.	16g	16b	.
.	16f	16ddn	.
=50	=50	=50	=50
1r	16e-	4g	8dd]
.	16f	.	.
.	16e-	.	16cc
.	16dn	.	16ddn
.	8c	8r	[2.ee-
.	16c	8g	.
.	16B-	.	.
.	8An	8c	.
.	16A	16cc	.
.	16G	16b-	.
.	8F	8an	.
.	16G	16b-	.
.	16A	16cc	.
=51	=51	=51	=51
1r	8B-	8f	8ee-]
.	16f	8b-	16ddn
.	16e-	.	16ee-
.	8dn	8r	[2.ff
.	16d	8a-	.
.	16c	.	.
.	8Bn	8g	.
.	16B	16ddn	.
.	16An	16cc	.
.	8G	8bn	.
.	16A	16cc	.
.	16B	16dd	.
=52	=52	=52	=52
1r	8c	4g	16ff]
.	.	.	16ddn
.	16B-	.	16een
.	16A-	.	16gg
.	8G	8r	[2.b-
.	16G	8d-	.
.	16F	.	.
.	8En	8c	.
.	16E	16g	.
.	16Dn	16f	.
.	8C	8en	.
.	16D	16f	.
.	16E	16g	.
=53	=53	=53	=53
4r	16F	8c	8b-]
.	16G	.	.
.	16A-	4f	8a-
.	16B-	.	.
4C	[4c	.	4g
.	.	8en	.
4D-	8c]	4f	16f
.	.	.	16en
.	8B-	.	16f
.	.	.	16g
4C	8r	16r	4a-
.	.	16g	.
.	[8A-	16f	.
.	.	16e-	.
=54	=54	=54	=54
4BBn	8A-]	4dn	16r
.	.	.	16f
.	16G	.	16g
.	16F	.	16a-
4En	16G	8r	4b-
.	16B-	.	.
.	16A-	[8d-	.
.	16G	.	.
4F	8F	8d-]	16r
.	.	.	16a-
.	16G	8c	16b-
.	16A-	.	16cc
4BB-	16B-	8r	4dd-
.	16F	.	.
.	16E-	[8g-	.
.	16D-	.	.
=55	=55	=55	=55
4AAn	[4C	8g-]	16r
.	.	.	16cc
.	.	8f	16ddn
.	.	.	16een
4AA-	16C]	16r	[4ff
.	16Dn	16f	.
.	16En	16gn	.
.	16F	16a-	.
2GG	[4G	[2b-	8ff]
.	.	.	16ee
.	.	.	16dd
.	16G]	.	4ee
.	16AAn	.	.
.	16BB-	.	.
.	16C	.	.
=56	=56	=56	=56
[4FF	16D-	16b-]	[4ff
.	16C	16dd-	.
.	16D-	16cc	.
.	16E-	16b-	.
16FF]	[4F	4an	16ff]
16FF	.	.	16ee-
16GG	.	.	16dd-
16AAn	.	.	16cc
[4BB-	16F]	16r	[4dd-
.	16F	16cc	.
.	16G	16b-	.
.	16A-	16a-	.
16BB-]	[4B-	16g	16dd-]
16D-	.	16f	16b-
16C	.	16e-	16cc
16BB-	.	16d-	16dd-
=57	=57	=57	=57
1C	16B-]	1c	8en
.	16B-	.	.
.	16A-	.	[8cc
.	16G	.	.
.	4A-	.	16cc]
.	.	.	16g
.	.	.	16a-
.	.	.	[16f
.	2GM	.	16f]
.	.	.	16f
.	.	.	16e
.	.	.	16dn
.	.	.	4eM
=58	=58	=58	=58
1FF;	1An;	1c;	1f;
==	==	==	==
*-	*-	*-	*-
!!!CDT: 1685/3/-1750/7/28
!!!OCY: Deutschland
!!!PPP: Coethen; Cothen; Co2then
!!!ODT: <1722//
!!!PDT: 1722
!!!AFR: fuga; fugue
!!!AST: polyphony
!!!AMT: simple quadruple
!!!SCA: Bach-Werke-Verzeichnis
!!!YOR: Bach Gesellschaft
!!!SMS: British Library, various
!!!AIN: cemba; clavi
!!!EEV: 1.0
!!!RDT: 1986 November 19
!!!YER: 1994 August 10
!!!EFL: 12/48
!!!VTS: 1884121131
